app/client/src/assets/icons/blueprintjs/20px/small-square.svg

<svg width="20" height="20" viewBox="0 0 20 20" xmlns="http://www.w3.org/2000/svg">
<path fill-rule="evenodd" clip-rule="evenodd" d="M5 5V15H15V5H5ZM4 3C3.44772 3 3 3.44772 3 4V16C3 16.5523 3.44772 17 4 17H16C16.5523 17 17 16.5523 17 16V4C17 3.44772 16.5523 3 16 3H4Z"/>
</svg>

<svg xmlns="http://www.w3.org/2000/svg" width="20" height="20"><path fill-rule="evenodd" d="M5 5v10h10V5H5ZM4 3a1 1 0 0 0-1 1v12a1 1 0 0 0 1 1h12a1 1 0 0 0 1-1V4a1 1 0 0 0-1-1H4Z" clip-rule="evenodd"/></svg>
